X:1
T:Mi fai peccato
T:Mi fai peccato
T:Gio.Felice Sances
T:Source :  Cantada---Libro II Parte seconda---Venetia---B.Magni---1633. Editor : André Vierendeels (13/05/15).
T:Canzonetta
T:Notes : Oreiginal clefs : C1, C1, F4 Dotted brackets indicate black notes Figures in BC are notated in original print Notes values have been halved, but not from m 14 to 17 3/2 notated as 3/1 in original print m11 in BC, "re" notated as "si" in original print 
C:Gio.Felice Sances
%%score [ 1 2 ] 3
L:1/8
Q:1/4=120
M:3/2
K:C
V:1 treble nm="Soprano 1" snm="S 1"
V:2 treble nm="Soprano 2" snm="S 2"
V:3 bass nm="BC" snm="BC"
V:1
 d4 c4 B4 | A4 G8 | ^F4 E8 | ^F8 F4 | G4 A8 | B4 ^c8 | d8 A4 | A4 A8 | d8 d4 | ^c8 d4 | B4 A8 | %11
w: Mi fai pec-|ca- t'o|pa- sto-|rel ve-|der ti|con- su-|mar per|quel- la|ria cru-|del, per|quel- la|
w: Che non t'a-|do- ri'e|chi fa-|ra, se|quel tuo|Ciel se-|ren fa|lie- ta'o-|gni bel-|ta, fa|lie- ta'o-|
 A8 A4 | G12 ::[M:4/4] z2 d2 e4 | e4 ^f4- | f2 ed ^c3 c | B8 |[M:3/2] B4 B4 A4 | B4 ^c8 | %19
w: ria cru-|del,|Dhe, _|dhe _|_ la- scia'l la- gri-|mar,|che se fa|pes- si|
w: gni bel-|ta,|Dhe, _|dhe _|_ la- scia'il ve- nir|men,|fug- gi la|cru- del-|
 d4 A4 A4 | A4 B8 | ^c8 d4 | B4 d8 | d8 ^c4 | d8 e4 | d4 A8 | B8 B4 | ^c8 A4- | A4 G4 G4 | ^F12 | %30
w: tu se sa-|pe- sti,|tu quel|che fo|i- o|_ da-|re- sti'all'|a- mor|suo l'vi-|* ti- mo'a-|di-|
w: ta di que-|st'in- gra-|te e|to- sto|ri'a- vrai|mil- le'in-|a- mo-|ra- ta,||||
 ^G8 A4 | ^F4 A8 | A8 ^G4 | A8 A4- | A4 G4 ^F4 | E12 | ^F12 | d12- | d4 c4 B4 | A12 | B12 :| %41
w: o da-|re- sti'all'|a- mor|suo l'vi-|* ti- mo'a-|di-|o,|l'vi-|* ti- mo'a-|di-|o.|
w: |||||||||||
V:2
 B4 A4 G4 | ^F4 E8 | ^D4 E8 | ^D8 D4 | E4 ^F8 | G8 A4 | ^F8 F4 | ^F4 E8 | ^F4 ^G8 | A8 A4 | D4 G8 | %11
w: fai pec- ca-|t'o pa-|sto- rel|ve- der|ti con-|su- mar|per quel-|la ria|cru- del,|per quel-|la ria|
w: Che non t'a-|do- ri'e|chi fa-|ra, se|quel tuo|Ciel se-|ren fa|lie- ta'o-|gni bel-|ta, fa|lie- ta'o-|
 G8 ^F4 | G12 ::[M:4/4] z4 z2 B2 | ^c4 z2 c2 | d2 ^cB B3 ^A | B8 |[M:3/2] z12 | z12 | ^F4 F4 E4 | %20
w: cru- del,|Dhe,|dhe|_ la-|* scia'il la- gri- mar,|che|||se sa- pe-|
w: gni bel-|ta,|Dhe,|_ dhe|_ la- scia'il ve- nir|men,|||di- que- st'in-|
 ^F4 ^G8 | A8 A4 | G4 ^F8 | E12 | ^F8 A4 | ^F4 A8 | A8 ^G4 | A8 ^F4- | F4 E4 E4 | E8 ^D4 | E8 e4 | %31
w: sti, tu|quel che|fo i-|o|da- re-|sti'all' a-|mor suo|l'vi- ti-|* mo'a- di-|o, da-|* re-|
w: gra- te|e to-|sto n'a-|vrai|mil- le'in-|a- mo-|ra- ta,|||||
 d8 A4 | B8 B4 | ^c8 d4- | d4 B4 d4 | d8 ^c4 | d12 | B12- | B4 A4 G4 | G8 ^F4 | G12 :| %41
w: sti'all' a-|mor suo|l'vi- ti-|* mo'a- di-|o, *|l'vi-|ti-|* mo'a- di-|o. *||
w: ||||||||||
V:3
 G,,4 A,,4 B,,4 | C,4 A,,8 | B,,4 C,8 | B,,8 B,,4 | E,4 D,8 | G,4 E,8 | D,12 | D,4 C,8 | B,,12 | %9
 A,,8 ^F,4 | G,4 D,8 | D,12 | G,,12 ::[M:4/4]"^5     6" G,6 G,2 | A,6 A,2 |"^4  3" B,2 E,2 ^F,4 | %16
 B,,8 |[M:3/2] G,4 G,4 ^F,4 | G,4 E,8 | D,8 ^C,4 | D,4 B,,8 | A,,4 A,4 ^F,4 | G,4 D,8 | A,,12 | %24
 D,8 ^C,4 | D,4 ^F,8 | E,8 E,4 | A,,8 D,4 | G,,8 A,,4 | B,,12 | E,8 ^C,4 | D,4 ^F,8 | E,12 | %33
 A,,8 D,4 | G,,8 G,,4 | A,,12 | D,12 | G,,12- | G,,4 C,4 C,4 | D,12 | G,,12 :| %41

